X: 227
T: Aarne Tarvaisen's
B: tunes
M:3/4
R: mazurka
Q: 1/4=100
K:Dminor
V:1 
A2|:"Dm" A>B AG FE|D2 d2 d2|"A7" A2 ^c2 c2|"Dm" A2 d2 d2|
 "Dm" A>B AG FE|D2 d2 d2|"A7" A2 ^c2 cA|"Dm" d2 d2:|
 |:z e|"Dm" fe d2 d^c|"A7" e2 A4|a2 g2 ge|"Dm" af d2 de|
 "Dm" fe d2 dc|"Gm" B>A G2 F2|"A7" E2 A2 A^c|"Dm" d2 d2g2:|
% abcbook-tune_id 6345470f787ff34685f80a59
% abcbook-tune_composer_id 
% abcbook-link-0 https://www.youtube.com/watch?v=dxLkbqEsLSY
% abcbook-link-title-0 Aarne Tarvaisen masurka
% abcbook-boost 13
% abcbook-difficulty 0
% abcbook-tags andrew kordas,ralph cullen,steve ryan,world music tunes
% abcbook-tablature 
% abcbook-transpose 
% abcbook-tuning 
% abcbook-lastupdated 1675313079072
% abcbook-soundfonts 
% abcbook-repeats 3


